X:75
T:Countess of Coventrys March THO1.075
M:2/4
L:1/8
Z:vmp. Peter Dunk 2012.from a transcription by Fynn Titford-Mock 2006
B:Thompson's Compleat Collection of 200 Favourite Country Dances Vol.I,1758
Q:1/4=140
K:D
ab b2|fa a2|egfd|ecBA|ab b2|fa a2|Adce|d2D2:|
|:fafd|gbge|fafd|ce e2|fafd|gbge|Adce|d2D2:|

